X: 3
T:Passe Pieds de Ploeuc sur Lie
M:4/4
L:1/8
Q:60
C:Traditionnel
R:Passe Pieds
A:Cotes d'Armor (Bretagne)
H:Festival Boqueho Mai 1998
Z:J.M HENRY <Jmarchenry:aol.COM>
K:G
Gd dB ce dB|ce dc BA BG|Gd dB ce dB|ce dc BA GA/2B/2|!
cB Ad dd GA/2B/2|cB AB A2 GA/2B/2|cB Ad dd GA/2B/2|cB AB A2 G2|
